static/img/menus/ico-notsync.svg

<svg width="16" height="16" viewBox="0 0 16 16" fill="none" xmlns="http://www.w3.org/2000/svg">
<g clip-path="url(#clip0_307_9)">
<path d="M14 5.33333L12.4933 3.82667C11.2874 2.66082 9.67737 2.00631 8 2C7.33334 2 6.68667 2.10667 6.08667 2.31333" stroke="currentColor" stroke-width="1.66667" stroke-linecap="round" stroke-linejoin="round"/>
<path d="M5.33333 10.6666H2V14" stroke="currentColor" stroke-width="1.66667" stroke-linecap="round" stroke-linejoin="round"/>
<path d="M2 8.00001C2 6.34001 2.66667 4.84001 3.76 3.76001" stroke="currentColor" stroke-width="1.66667" stroke-linecap="round" stroke-linejoin="round"/>
<path d="M2 10.6666L3.50667 12.1733C4.71265 13.3391 6.32263 13.9936 8 14C9.66 14 11.16 13.3333 12.24 12.24" stroke="currentColor" stroke-width="1.66667" stroke-linecap="round" stroke-linejoin="round"/>
<path d="M14 8C14 8.66667 13.8933 9.31333 13.6866 9.91333" stroke="currentColor" stroke-width="1.66667" stroke-linecap="round" stroke-linejoin="round"/>
<path d="M14 2V5.33333H10.6666" stroke="currentColor" stroke-width="1.66667" stroke-linecap="round" stroke-linejoin="round"/>
<path d="M14.6667 14.6667L1.33337 1.33337" stroke="currentColor" stroke-width="1.66667" stroke-linecap="round" stroke-linejoin="round"/>
</g>
<defs>
<clipPath id="clip0_307_9">
<rect width="16" height="16" fill="white"/>
</clipPath>
</defs>
</svg>

<svg xmlns="http://www.w3.org/2000/svg" width="16" height="16" fill="none" viewBox="0 0 16 16"><g stroke="currentColor" stroke-linecap="round" stroke-linejoin="round" stroke-width="1.667" clip-path="url(#a)"><path d="m14 5.333-1.507-1.506A6.5 6.5 0 0 0 8 2c-.667 0-1.313.107-1.913.313M5.333 10.667H2V14M2 8c0-1.66.667-3.16 1.76-4.24"/><path d="m2 10.667 1.507 1.506A6.5 6.5 0 0 0 8 14a5.93 5.93 0 0 0 4.24-1.76M14 8c0 .667-.107 1.313-.313 1.913M14 2v3.333h-3.333M14.667 14.667 1.333 1.333"/></g><defs><clipPath id="a"><path fill="#fff" d="M0 0h16v16H0z"/></clipPath></defs></svg>
